assets/img/client-logos/cru.svg

<svg enable-background="new 0 0 150 150" viewBox="0 0 150 150" xmlns="http://www.w3.org/2000/svg"><path d="m57.3 109.2h-28.9c-3.8 0-6.9-3.1-6.9-6.9v-18.5c0-3.8 3.1-6.9 6.9-6.9h26.3v-19.9h-25.3c-14.6 0-26.4 11.8-26.4 26.4v19.3c0 14.5 11.8 26.3 26.4 26.3h28.3c14.6 0 26.4-11.8 26.4-26.4v-17h-19.9v16.7c0 3.8-3.1 6.9-6.9 6.9z"/><path d="m117.4 21h-26.9c-14.6 0-26.4 11.8-26.4 26.4v29.5h20.1v-28.8c0-3.8 3.1-6.9 6.9-6.9h26.3z"/><path d="m126.9 50.9v27.9c0 3.8-3.1 6.9-6.9 6.9h-26.6v20h27.2c14.6 0 26.4-11.8 26.4-26.4v-28.4z"/></svg>

<?xml version="1.0" encoding="utf-8"?>
<!-- Generator: Adobe Illustrator 27.3.0, SVG Export Plug-In . SVG Version: 6.00 Build 0)  -->
<svg version="1.1" id="Layer_1" xmlns="http://www.w3.org/2000/svg" xmlns:xlink="http://www.w3.org/1999/xlink" x="0px" y="0px"
	 viewBox="0 0 150 150" style="enable-background:new 0 0 150 150;" xml:space="preserve">
<path d="M57.3,109.2H28.4c-3.8,0-6.9-3.1-6.9-6.9V83.8c0-3.8,3.1-6.9,6.9-6.9h26.3V57H29.4C14.8,57,3,68.8,3,83.4v19.3
	C3,117.2,14.8,129,29.4,129h28.3c14.6,0,26.4-11.8,26.4-26.4v-17H64.2v16.7C64.2,106.1,61.1,109.2,57.3,109.2z"/>
<path d="M117.4,21H90.5c-14.6,0-26.4,11.8-26.4,26.4v29.5h20.1V48.1c0-3.8,3.1-6.9,6.9-6.9h26.3V21z"/>
<path d="M126.9,50.9v27.9c0,3.8-3.1,6.9-6.9,6.9H93.4v20h27.2c14.6,0,26.4-11.8,26.4-26.4V50.9H126.9z"/>
</svg>
